icon-themes/sifr_svg/cmd/sc_convert_to_contour.svg

<svg viewBox="0 0 16 16" xmlns="http://www.w3.org/2000/svg"><path d="m11 1a4 4 0 0 0 -4 4 4 4 0 0 0 4 4 4 4 0 0 0 4-4 4 4 0 0 0 -4-4zm0 2a2 2 0 0 1 2 2 2 2 0 0 1 -2 2 2 2 0 0 1 -2-2 2 2 0 0 1 2-2zm-6 4-4 4v2.595703l4.1484375-3.9160155 4.6015625 3.6816405 2.25-1.125 3 1.763672v-2l-3-2-2 1z" fill="#555753"/></svg>

<svg xmlns="http://www.w3.org/2000/svg" viewBox="0 0 16 16">
  <path
     style="fill:#555753"
     d="M 11 1 A 4 4 0 0 0 7 5 A 4 4 0 0 0 11 9 A 4 4 0 0 0 15 5 A 4 4 0 0 0 11 1 z M 11 3 A 2 2 0 0 1 13 5 A 2 2 0 0 1 11 7 A 2 2 0 0 1 9 5 A 2 2 0 0 1 11 3 z M 5 7 L 1 11 L 1 13.595703 L 5.1484375 9.6796875 L 9.75 13.361328 L 12 12.236328 L 15 14 L 15 12 L 12 10 L 10 11 L 5 7 z "
     />
</svg>
